X:1
T:The Humours of Tulla
M:C
L:1/8
Q:80
C:Arr. by T. Tully
S:Reel
K:HP
[| {Gdc}d2{g}Ad{g}Bd{g}A{d}A | \
{Gdc}d2{g}fd{g}ed{g}Bc | \
{Gdc}d2{e}Ad{g}Bd{g}A{d}A |
{g}((3Bcd){g}ef{a}ge{g}fe{Gdc}d2{g}Ad{g}Bd{g}A{d}A | \
{Gdc}d2{g}fd{g}ed{g}Bc | \
{Gdc}d2{e}Ad{g}Bd{g}A{d}A |
{g}((3Bcd){g}ef{a}ge{g}fg|] [ | \
ag{a}fade{g}fg | \
ag{a}faef{a}ge |
ag{a}fe{g}df{g}ed | \
{g}cd{g}ef{a}ge{g}fgag{a}fade{g}fg | \
ag{a}faef{a}ge |
ag{a}fe{g}df{g}ed | \
{g}cd{g}ef{a}ge{g}fe|]
